X:2
T:Moonglow
C:Hudson-Delange-Mills
L:1/4
M:C
I:linebreak $
K:A
"D" z F"D6" A/F/ A |"Dm" c c"G7" z2 |"C#m" z F"F#m" A/F/ A |"B7b5" c2"B7" z2 |$
"Bm" z F"BmM" A/F/ A |"Bm" c c"Bb7" z2 |"A6" z A"Ao" A A |"Bm/A" A"Ao" A/"A6"A/ "_Fine" z2 :|$
[K:Ab]"A" e4 |"A7" z e/e/"Ab7" =d/=d/"G7" d/d/ |"F#7" c4 |"C#m" z4 "F#7" x4||$[K:A]"F#m" c/c/ c c2 |
"B7" z2 F/G/A/B/ |"Bm" c2"E7" B2 |"Em" B2"A7" "_D.C. al Fine" A2 ||

